Origami/24x24/apps/VVVVVV.svg

<svg width="24" height="24" version="1" xmlns="http://www.w3.org/2000/svg">
 <rect transform="matrix(0,-1,-1,0,0,0)" x="-22.5" y="-22" width="20" height="20" rx="1" ry="1" style="opacity:.2"/>
 <rect transform="matrix(0,-1,-1,0,0,0)" x="-22" y="-22" width="20" height="20" rx="1" ry="1" style="fill:#407494"/>
 <path d="m3 2c-0.554 0-1 0.446-1 1v0.5c0-0.554 0.446-1 1-1h18c0.554 0 1 0.446 1 1v-0.5c0-0.554-0.446-1-1-1z" style="fill:#ffffff;opacity:.1"/>
 <path d="m17 5.5v1h1v10h-1v1h-3v1h3v1h-10v-1h3v-1h-3v-1h-1v-10h1v-1z" style="opacity:.2"/>
 <path d="m17 5v1h1v10h-1v1h-3v1h3v1h-10v-1h3v-1h-3v-1h-1v-10h1v-1z" style="fill:#91c2d0"/>
 <path d="m15 7.5v3h-3v-3zm-5 0v3h-3v-3zm4 6v1h-1v1h-5v-1h-1v-1z" style="opacity:.2"/>
 <path d="m15 7v3h-3v-3zm-5 0v3h-3v-3zm4 6v1h-1v1h-5v-1h-1v-1z" style="fill:#404040"/>
 <path d="m7 5v0.5h10v-0.5h-10zm-1 1v0.5h1v-0.5h-1zm11 0v0.5h1v-0.5h-1zm-10 12v0.5h3v-0.5h-3zm7 0v0.5h3v-0.5h-3z" style="fill:#ffffff;opacity:.1"/>
</svg>

<svg xmlns="http://www.w3.org/2000/svg" width="24" height="24" version="1">
 <rect style="opacity:0.2" width="20" height="20" x="-22.5" y="-22" rx="1" ry="1" transform="matrix(0,-1,-1,0,0,0)"/>
 <rect style="fill:#407494" width="20" height="20" x="-22" y="-22" rx="1" ry="1" transform="matrix(0,-1,-1,0,0,0)"/>
 <path style="opacity:0.1;fill:#ffffff" d="M 3,2 C 2.446,2 2,2.446 2,3 v 0.5 c 0,-0.554 0.446,-1 1,-1 h 18 c 0.554,0 1,0.446 1,1 V 3 C 22,2.446 21.554,2 21,2 Z"/>
 <path style="opacity:0.2" d="m 17,5.5 v 1 h 1 v 10 h -1 v 1 h -3 v 1 h 3 v 1 H 7 v -1 h 3 v -1 H 7 v -1 H 6 v -10 h 1 v -1 z"/>
 <path style="fill:#91c2d0" d="m 17,5 v 1 h 1 v 10 h -1 v 1 h -3 v 1 h 3 v 1 H 7 v -1 h 3 V 17 H 7 V 16 H 6 V 6 H 7 V 5 Z"/>
 <path style="opacity:0.2" d="m 15,7.5 v 3 h -3 v -3 z m -5,0 v 3 H 7 v -3 z m 4,6 v 1 h -1 v 1 H 8 v -1 H 7 v -1 z"/>
 <path style="fill:#404040" d="m 15,7 v 3 H 12 V 7 Z m -5,0 v 3 H 7 V 7 Z m 4,6 v 1 h -1 v 1 H 8 V 14 H 7 v -1 z"/>
 <path style="fill:#ffffff;opacity:0.1" d="M 7 5 L 7 5.5 L 17 5.5 L 17 5 L 7 5 z M 6 6 L 6 6.5 L 7 6.5 L 7 6 L 6 6 z M 17 6 L 17 6.5 L 18 6.5 L 18 6 L 17 6 z M 7 18 L 7 18.5 L 10 18.5 L 10 18 L 7 18 z M 14 18 L 14 18.5 L 17 18.5 L 17 18 L 14 18 z"/>
</svg>
